ExpEYES17/UserManual/schematics/fullwave.svg

<?xml version="1.0" encoding="UTF-8" standalone="no"?>
<svg
   xmlns:dc="http://purl.org/dc/elements/1.1/"
   xmlns:cc="http://creativecommons.org/ns#"
   xmlns:rdf="http://www.w3.org/1999/02/22-rdf-syntax-ns#"
   xmlns:svg="http://www.w3.org/2000/svg"
   xmlns="http://www.w3.org/2000/svg"
   xmlns:sodipodi="http://sodipodi.sourceforge.net/DTD/sodipodi-0.dtd"
   xmlns:inkscape="http://www.inkscape.org/namespaces/inkscape"
   version="1.1"
   id="fullwave"
   width="100%"
   height="100%"
   viewBox="-6 -6 534 406"
   sodipodi:docname="fullwave.svg"
   inkscape:export-filename="/home/georgesk/developpement/expeyes/expeyes/ExpEYES17/UserManual/fr/rst/exp/schematics/fullwave.png"
   inkscape:export-xdpi="54.339622"
   inkscape:export-ydpi="54.339622"
   inkscape:version="0.92.3 (2405546, 2018-03-11)">
  <metadata
     id="metadata131">
    <rdf:RDF>
      <cc:Work
         rdf:about="">
        <dc:format>image/svg+xml</dc:format>
        <dc:type
           rdf:resource="http://purl.org/dc/dcmitype/StillImage" />
        <dc:title />
      </cc:Work>
    </rdf:RDF>
  </metadata>
  <defs
     id="defs129" />
  <sodipodi:namedview
     pagecolor="#ffffff"
     bordercolor="#666666"
     borderopacity="1"
     objecttolerance="10"
     gridtolerance="10"
     guidetolerance="10"
     inkscape:pageopacity="0"
     inkscape:pageshadow="2"
     inkscape:window-width="1668"
     inkscape:window-height="1013"
     id="namedview127"
     showgrid="false"
     inkscape:zoom="1.9408867"
     inkscape:cx="267"
     inkscape:cy="203"
     inkscape:window-x="0"
     inkscape:window-y="0"
     inkscape:window-maximized="1"
     inkscape:current-layer="fullwave" />
  <desc
     id="desc2">
XCircuit Version 3.7
File &quot;fullwave.ps&quot; Page 1
</desc>
  <path
     style="fill:none;stroke:#000000;stroke-width:2;stroke-linecap:round;stroke-linejoin:bevel"
     inkscape:connector-curvature="0"
     id="path4"
     d="m 320,224 h 28" />
  <path
     style="fill:none;stroke:#000000;stroke-width:2;stroke-linecap:round;stroke-linejoin:bevel"
     inkscape:connector-curvature="0"
     id="path6"
     d="M 448,224 H 420" />
  <path
     style="fill:none;stroke:#000000;stroke-width:2;stroke-linecap:round;stroke-linejoin:bevel"
     inkscape:connector-curvature="0"
     id="path8"
     d="m 420,224 -6,-14 -12,28 -12,-28 -12,28 -12,-28 -12,28 -6,-14" />
  <circle
     style="fill:none;stroke:#000000;stroke-width:2;stroke-linecap:round;stroke-linejoin:bevel"
     r="16"
     id="ellipse24"
     cy="224"
     cx="304" />
  <path
     style="fill:none;stroke:#000000;stroke-width:2;stroke-linecap:round;stroke-linejoin:bevel"
     inkscape:connector-curvature="0"
     id="path26"
     d="m 336,144 h 58" />
  <path
     style="fill:none;stroke:#000000;stroke-width:2;stroke-linecap:round;stroke-linejoin:bevel"
     inkscape:connector-curvature="0"
     id="path28"
     d="M 464,144 H 406" />
  <path
     style="fill:none;stroke:#000000;stroke-width:2;stroke-linecap:round;stroke-linejoin:bevel"
     inkscape:connector-curvature="0"
     id="path30"
     d="m 406,112 v 64" />
  <path
     style="fill:none;stroke:#000000;stroke-width:2;stroke-linecap:round;stroke-linejoin:bevel"
     inkscape:connector-curvature="0"
     id="path32"
     d="m 394,112 v 64" />
  <path
     style="fill:none;stroke:#000000;stroke-width:2;stroke-linecap:round;stroke-linejoin:bevel"
     inkscape:connector-curvature="0"
     id="path36"
     d="M 0,0 V 400 H 528 V 0 Z" />
  <circle
     style="fill:none;stroke:#000000;stroke-width:2;stroke-linecap:round;stroke-linejoin:bevel"
     r="16"
     id="ellipse38"
     cy="224"
     cx="464" />
  <circle
     style="fill:none;stroke:#000000;stroke-width:2;stroke-linecap:round;stroke-linejoin:bevel"
     r="16"
     id="ellipse40"
     cy="224"
     cx="176" />
  <path
     style="fill:none;stroke:#000000;stroke-width:2;stroke-linecap:round;stroke-linejoin:bevel"
     inkscape:connector-curvature="0"
     id="path42"
     d="m 304,240 c 1,0 -34.14159,44.49558 0,96"
     sodipodi:nodetypes="cc" />
  <path
     style="fill:#000000;stroke:none"
     inkscape:connector-curvature="0"
     id="path44"
     d="m 224,206 32,18 -32,18 z" />
  <path
     style="fill:none;stroke:#000000;stroke-width:2;stroke-linecap:round;stroke-linejoin:bevel"
     inkscape:connector-curvature="0"
     id="path46"
     d="m 192,224 h 32" />
  <path
     style="fill:none;stroke:#000000;stroke-width:2;stroke-linecap:round;stroke-linejoin:bevel"
     inkscape:connector-curvature="0"
     id="path48"
     d="M 288,224 H 256" />
  <path
     style="fill:none;stroke:#000000;stroke-width:2;stroke-linecap:round;stroke-linejoin:bevel"
     inkscape:connector-curvature="0"
     id="path50"
     d="m 256,206 v 36" />
  <path
     style="fill:none;stroke:#000000;stroke-width:2;stroke-linecap:round;stroke-linejoin:bevel"
     inkscape:connector-curvature="0"
     id="path52"
     d="m 32,336 v 48 h 96 v -48 z" />
  <path
     style="fill:none;stroke:#000000;stroke-width:2;stroke-linecap:round;stroke-linejoin:bevel"
     inkscape:connector-curvature="0"
     id="path54"
     d="m 464,240 c 1,0 42.44248,64.51327 -21.55752,96.51327"
     sodipodi:nodetypes="cc" />
  <path
     style="fill:none;stroke:#000000;stroke-width:2;stroke-linecap:round;stroke-linejoin:bevel"
     inkscape:connector-curvature="0"
     id="path56"
     d="m 80,336 c 21.22124,-55.69912 33.69912,-78.46018 85.64602,-100.19469"
     sodipodi:nodetypes="cc" />
  <path
     style="fill:none;stroke:#000000;stroke-width:2;stroke-linecap:round;stroke-linejoin:bevel"
     inkscape:connector-curvature="0"
     id="path58"
     d="M 200.63717,334.97345 C 202.66372,283.13274 190.54867,260.79646 176,240"
     sodipodi:nodetypes="cc" />
  <path
     style="fill:#000000;stroke:none"
     inkscape:connector-curvature="0"
     id="path64"
     d="m 224,94 32,18 -32,18 z" />
  <path
     style="fill:none;stroke:#000000;stroke-width:2;stroke-linecap:round;stroke-linejoin:bevel"
     inkscape:connector-curvature="0"
     id="path66"
     d="m 192,112 h 32" />
  <path
     style="fill:none;stroke:#000000;stroke-width:2;stroke-linecap:round;stroke-linejoin:bevel"
     inkscape:connector-curvature="0"
     id="path68"
     d="M 288,112 H 256" />
  <path
     style="fill:none;stroke:#000000;stroke-width:2;stroke-linecap:round;stroke-linejoin:bevel"
     inkscape:connector-curvature="0"
     id="path70"
     d="m 256,94 v 36" />
  <circle
     style="fill:none;stroke:#000000;stroke-width:2;stroke-linecap:round;stroke-linejoin:bevel"
     r="16"
     id="ellipse72"
     cy="112"
     cx="176" />
  <path
     style="fill:none;stroke:#000000;stroke-width:2;stroke-linecap:round;stroke-linejoin:bevel"
     inkscape:connector-curvature="0"
     id="path74"
     d="M 302.54824,207.27412 C 304.36486,188.94566 309.74574,111.72901 288,112"
     sodipodi:nodetypes="cc" />
  <path
     style="fill:none;stroke:#000000;stroke-width:2;stroke-linecap:round;stroke-linejoin:bevel"
     inkscape:connector-curvature="0"
     id="path76"
     d="m 336,144 c -16.51184,1.63323 -20.04317,38.08763 -24.67408,65.01629"
     sodipodi:nodetypes="cc" />
  <path
     style="fill:none;stroke:#000000;stroke-width:2;stroke-linecap:round;stroke-linejoin:bevel"
     inkscape:connector-curvature="0"
     id="path78"
     d="m 464,208 c 1,0 32,-32 0,-64" />
  <path
     style="fill:none;stroke:#000000;stroke-width:2;stroke-linecap:round;stroke-linejoin:bevel"
     inkscape:connector-curvature="0"
     id="path80"
     d="M 177.9646,95.061947 C 168.18584,76.070796 158.37168,65.964602 129.45133,63.486726"
     sodipodi:nodetypes="cc" />
  <path
     style="fill:none;stroke:#000000;stroke-width:2;stroke-linecap:round;stroke-linejoin:bevel"
     inkscape:connector-curvature="0"
     id="path82"
     d="M 129.87611,210.38938 C 168.0354,178.40709 167.18584,163.16814 176,128"
     sodipodi:nodetypes="cc" />
  <text
     font-size="40"
     id="text86"
     style="font-size:40px;font-family:Helvetica;fill:#000000;stroke:none"
     x="46.903439"
     y="374.57999">
    <tspan
       x="46.903439"
       y="374.57999"
       id="tspan84">WG</tspan>
  </text>
  <text
     font-size="40"
     id="text92"
     style="font-size:40px;font-family:Helvetica;fill:#000000;stroke:none"
     x="179.88571"
     y="374.57999">
    <tspan
       x="179.88571"
       y="374.57999"
       id="tspan90">A1</tspan>
  </text>
  <text
     font-size="40"
     id="text100"
     style="font-size:40px;font-family:Helvetica;fill:#000000;stroke:none"
     x="297.2308"
     y="374.28">
    <tspan
       x="297.2308"
       y="374.28"
       id="tspan98">A3</tspan>
  </text>
  <text
     font-size="40"
     id="text106"
     style="font-size:40px;font-family:Helvetica;fill:#000000;stroke:none"
     x="397.35522"
     y="374.57999">
    <tspan
       x="397.35522"
       y="374.57999"
       id="tspan104">GND</tspan>
  </text>
  <text
     font-size="40"
     id="text118"
     style="font-size:40px;font-family:Helvetica;fill:#000000;stroke:none"
     x="56.080624"
     y="224.6862">
    <tspan
       x="56.080624"
       y="224.6862"
       id="tspan116">A2</tspan>
  </text>
  <g
     id="g251"
     transform="translate(15.850559,-3.647561)">
    <text
       y="80"
       x="32"
       style="font-size:40px;font-family:Helvetica;fill:#000000;stroke:none"
       id="text112"
       font-size="40">
      <tspan
         id="tspan110"
         y="80"
         x="32">WG</tspan>
    </text>
    <path
       d="M 32,48 H 96"
       id="path122"
       inkscape:connector-curvature="0"
       style="fill:none;stroke:#000000;stroke-width:2;stroke-linecap:round;stroke-linejoin:bevel" />
  </g>
  <path
     style="fill:none;stroke:#000000;stroke-width:2;stroke-linecap:round;stroke-linejoin:bevel"
     inkscape:connector-curvature="0"
     id="path52-3"
     d="m 32,186.10621 v 48 h 96 v -48 z" />
  <path
     style="fill:none;stroke:#000000;stroke-width:2;stroke-linecap:round;stroke-linejoin:bevel"
     inkscape:connector-curvature="0"
     id="path52-6"
     d="m 32,36.212389 v 48 h 96 v -48 z" />
  <path
     style="fill:none;stroke:#000000;stroke-width:2;stroke-linecap:round;stroke-linejoin:bevel"
     inkscape:connector-curvature="0"
     id="path52-7"
     d="m 152.52508,336 v 48 h 96 v -48 z" />
  <path
     style="fill:none;stroke:#000000;stroke-width:2;stroke-linecap:round;stroke-linejoin:bevel"
     inkscape:connector-curvature="0"
     id="path52-5"
     d="m 273.05018,336 v 48 h 96 v -48 z" />
  <path
     style="fill:none;stroke:#000000;stroke-width:2;stroke-linecap:round;stroke-linejoin:bevel"
     inkscape:connector-curvature="0"
     id="path52-35"
     d="m 393.57522,336 v 48 h 96 v -48 z" />
  <g
     id="g892"
     transform="translate(12)">
    <text
       y="283.8938"
       x="340.1062"
       style="font-size:40px;font-family:Helvetica;fill:#000000;stroke:none"
       id="text14"
       font-size="40">
      <tspan
         id="tspan12"
         y="283.8938"
         x="340.1062">R</tspan>
    </text>
    <text
       id="text255"
       y="289.13272"
       x="395.69913"
       style="font-style:normal;font-variant:normal;font-weight:normal;font-stretch:normal;font-size:21.33333397px;line-height:23px;font-family:sans-serif;-inkscape-font-specification:'sans-serif, Normal';font-variant-ligatures:normal;font-variant-caps:normal;font-variant-numeric:normal;font-feature-settings:normal;text-align:center;letter-spacing:0px;word-spacing:0px;writing-mode:lr-tb;text-anchor:middle;fill:#000000;fill-opacity:1;stroke:none;stroke-width:1px;stroke-linecap:butt;stroke-linejoin:miter;stroke-opacity:1"
       xml:space="preserve"><tspan
         y="289.13272"
         x="395.69913"
         id="tspan253"
         sodipodi:role="line">load</tspan></text>
  </g>
  <g
     id="g882"
     transform="translate(8)">
    <text
       y="87.787613"
       x="358.76108"
       style="font-size:40px;font-family:Helvetica;fill:#000000;stroke:none"
       id="text20"
       font-size="40">
      <tspan
         id="tspan18"
         y="87.787613"
         x="358.76108">C</tspan>
    </text>
    <text
       id="text265"
       y="97.168137"
       x="415.20355"
       style="font-style:normal;font-variant:normal;font-weight:normal;font-stretch:normal;font-size:21.33333397px;line-height:23px;font-family:sans-serif;-inkscape-font-specification:'sans-serif, Normal';font-variant-ligatures:normal;font-variant-caps:normal;font-variant-numeric:normal;font-feature-settings:normal;text-align:center;letter-spacing:0px;word-spacing:0px;writing-mode:lr-tb;text-anchor:middle;fill:#000000;fill-opacity:1;stroke:none;stroke-width:1px;stroke-linecap:butt;stroke-linejoin:miter;stroke-opacity:1"
       xml:space="preserve"><tspan
         y="97.168137"
         x="415.20355"
         id="tspan263"
         sodipodi:role="line">filter</tspan></text>
  </g>
</svg>

<svg xmlns="http://www.w3.org/2000/svg"
   xmlns:xlink="http://www.w3.org/1999/xlink"
   version="1.1"
   id="fullwave" width="100%" height="100%"  viewBox="-6 -6 534 406">
<desc>
XCircuit Version 3.7
File "fullwave.ps" Page 1
</desc>
<g stroke="black">
<path d="M320,224 L348,224 " fill="none" stroke-width="2" stroke-linejoin="bevel" stroke-linecap="round" stroke="#000000" />
<path d="M448,224 L420,224 " fill="none" stroke-width="2" stroke-linejoin="bevel" stroke-linecap="round" stroke="#000000" />
<path d="M420,224 L414,210 402,238 390,210 378,238 366,210 354,238 348,224 " fill="none" stroke-width="2" stroke-linejoin="bevel" stroke-linecap="round" stroke="#000000" />
<path d="M144,336 L144,384 208,384 208,336 z" fill="none" stroke-width="2" stroke-linejoin="bevel" stroke-linecap="round" stroke="#000000" />
<g transform="matrix(   1    0   -0    1 336 288)" fill="#000000" >
<text stroke="none" font-family="Helvetica" font-size="40" ><tspan x="0" y="0">Rload</tspan>
</text></g>
<g transform="matrix(   1    0   -0    1 368  96)" fill="#000000" >
<text stroke="none" font-family="Helvetica" font-size="40" ><tspan x="0" y="0">Cfilter</tspan>
</text></g>
<ellipse cx="304" cy="224" rx="16" ry="16" fill="none" stroke-width="2" stroke-linejoin="bevel" stroke-linecap="round" stroke="#000000" />
<path d="M336,144 L394,144 " fill="none" stroke-width="2" stroke-linejoin="bevel" stroke-linecap="round" stroke="#000000" />
<path d="M464,144 L406,144 " fill="none" stroke-width="2" stroke-linejoin="bevel" stroke-linecap="round" stroke="#000000" />
<path d="M406,112 L406,176 " fill="none" stroke-width="2" stroke-linejoin="bevel" stroke-linecap="round" stroke="#000000" />
<path d="M394,112 L394,176 " fill="none" stroke-width="2" stroke-linejoin="bevel" stroke-linecap="round" stroke="#000000" />
<path d="M400,336 L400,384 496,384 496,336 z" fill="none" stroke-width="2" stroke-linejoin="bevel" stroke-linecap="round" stroke="#000000" />
<path d="M0,0 L0,400 528,400 528,0 z" fill="none" stroke-width="2" stroke-linejoin="bevel" stroke-linecap="round" stroke="#000000" />
<ellipse cx="464" cy="224" rx="16" ry="16" fill="none" stroke-width="2" stroke-linejoin="bevel" stroke-linecap="round" stroke="#000000" />
<ellipse cx="176" cy="224" rx="16" ry="16" fill="none" stroke-width="2" stroke-linejoin="bevel" stroke-linecap="round" stroke="#000000" />
<path d="M304,240 C305,240 256,304 304,336 " fill="none" stroke-width="2" stroke-linejoin="bevel" stroke-linecap="round" stroke="#000000" />
<path d="M224,206 L256,224 224,242 z" fill="#000000" stroke="none" />
<path d="M192,224 L224,224 " fill="none" stroke-width="2" stroke-linejoin="bevel" stroke-linecap="round" stroke="#000000" />
<path d="M288,224 L256,224 " fill="none" stroke-width="2" stroke-linejoin="bevel" stroke-linecap="round" stroke="#000000" />
<path d="M256,206 L256,242 " fill="none" stroke-width="2" stroke-linejoin="bevel" stroke-linecap="round" stroke="#000000" />
<path d="M32,336 L32,384 128,384 128,336 z" fill="none" stroke-width="2" stroke-linejoin="bevel" stroke-linecap="round" stroke="#000000" />
<path d="M464,240 C465,240 528,304 464,336 " fill="none" stroke-width="2" stroke-linejoin="bevel" stroke-linecap="round" stroke="#000000" />
<path d="M80,336 C112,288 48,256 160,224 " fill="none" stroke-width="2" stroke-linejoin="bevel" stroke-linecap="round" stroke="#000000" />
<path d="M176,336 C177,336 208,288 176,240 " fill="none" stroke-width="2" stroke-linejoin="bevel" stroke-linecap="round" stroke="#000000" />
<path d="M16,32 L16,96 112,96 112,32 z" fill="none" stroke-width="2" stroke-linejoin="bevel" stroke-linecap="round" stroke="#000000" />
<path d="M32,144 L32,192 96,192 96,144 z" fill="none" stroke-width="2" stroke-linejoin="bevel" stroke-linecap="round" stroke="#000000" />
<path d="M224,94 L256,112 224,130 z" fill="#000000" stroke="none" />
<path d="M192,112 L224,112 " fill="none" stroke-width="2" stroke-linejoin="bevel" stroke-linecap="round" stroke="#000000" />
<path d="M288,112 L256,112 " fill="none" stroke-width="2" stroke-linejoin="bevel" stroke-linecap="round" stroke="#000000" />
<path d="M256,94 L256,130 " fill="none" stroke-width="2" stroke-linejoin="bevel" stroke-linecap="round" stroke="#000000" />
<ellipse cx="176" cy="112" rx="16" ry="16" fill="none" stroke-width="2" stroke-linejoin="bevel" stroke-linecap="round" stroke="#000000" />
<path d="M304,208 C305,208 272,160 288,112 " fill="none" stroke-width="2" stroke-linejoin="bevel" stroke-linecap="round" stroke="#000000" />
<path d="M336,144 C337,144 319,224 320,224 " fill="none" stroke-width="2" stroke-linejoin="bevel" stroke-linecap="round" stroke="#000000" />
<path d="M464,208 C465,208 496,176 464,144 " fill="none" stroke-width="2" stroke-linejoin="bevel" stroke-linecap="round" stroke="#000000" />
<path d="M160,112 C161,112 144,48 112,64 " fill="none" stroke-width="2" stroke-linejoin="bevel" stroke-linecap="round" stroke="#000000" />
<path d="M96,176 C97,176 160,176 176,128 " fill="none" stroke-width="2" stroke-linejoin="bevel" stroke-linecap="round" stroke="#000000" />
<g transform="matrix(   1    0   -0    1  48 368)" fill="#000000" >
<text stroke="none" font-family="Helvetica" font-size="40" ><tspan x="0" y="0">WG</tspan>
</text></g>
<g transform="matrix(   1    0   -0    1 160 368)" fill="#000000" >
<text stroke="none" font-family="Helvetica" font-size="40" ><tspan x="0" y="0">A1</tspan>
</text></g>
<path d="M288,336 L288,384 352,384 352,336 z" fill="none" stroke-width="2" stroke-linejoin="bevel" stroke-linecap="round" stroke="#000000" />
<g transform="matrix(   1    0   -0    1 288 368)" fill="#000000" >
<text stroke="none" font-family="Helvetica" font-size="40" ><tspan x="0" y="0">A3</tspan>
</text></g>
<g transform="matrix(   1    0   -0    1 400 368)" fill="#000000" >
<text stroke="none" font-family="Helvetica" font-size="40" ><tspan x="0" y="0">GND</tspan>
</text></g>
<g transform="matrix(   1    0   -0    1  32  80)" fill="#000000" >
<text stroke="none" font-family="Helvetica" font-size="40" ><tspan x="0" y="0">WG</tspan>
</text></g>
<g transform="matrix(   1    0   -0    1  32 176)" fill="#000000" >
<text stroke="none" font-family="Helvetica" font-size="40" ><tspan x="0" y="0">A2</tspan>
</text></g>
<path d="M32,48 L96,48 " fill="none" stroke-width="2" stroke-linejoin="bevel" stroke-linecap="round" stroke="#000000" />
</g>
</svg>
